X:SSF 14-19b 27
T:
M:6/8
K:G
P:A
D|G2B AGF G2B ABc |1,3 BAB dBG AGA cAF :|2,4 BAB dBG cAF G2  :|
P:B
{A}|B3 dBG FAA FAc |1,3 BAB dBG Bcd efg :|2,4 BAB dBG cAF G2 :|
P:C
gdc BAG ABc def gfg efg faf def g2d e2c d2B ABc BAB dBG cAF G2 :|

% SSF 14-19b 28 Coleford Jig

% Into...

